X:1
T:Sag, welches ist dann
T:André Vierendeels
T:Melody by Georg Vogler (1625) (Soprano voice)
T:Source : Catechismus---Würzburg---J.Volmari---1652. Editor : André Vierendeels (17/10/17).
T:Notes : Original clef : C1, other voices supplied editorially Original note values have been quartered Text Middle German
T:Sag, welches ist dann 
T:©
T:©
T:©
C:André Vierendeels
Z:©
%%score [ 1 2 3 ]
L:1/8
Q:1/4=120
M:3/4
K:F
V:1 treble nm="Soprano" snm="S"
V:2 treble-8 nm="Tenor" snm="T"
V:3 bass nm="Bass" snm="B"
V:1
 z2 z2 G2 |"^1)" G4 D2 | G4 B2 | A3 G A2 | G4 c2 | c4 B2 | A4 G2 | B2 A4 | !fermata!G6 | z2 z2 G2 | %10
w: Sag,|wel- ches|ist dann|jet- * so|mehr dasz|an- der|Haupt- stück|un- ser|Lehr;|Hoff-|
w: War-|ausz lehrt|man dann,|wie _ und|wann man|recht hof-|fen und|bit- ten|kan?|Wann|
 G4 D2 | G4 B2 | A3 G A2 | G4 c2 | c4 B2 | A4 G2 | B2 A4 | G4 d2 | d2 d2 B2 | c4 d2 | B4 A2 | %21
w: nung ein|Tu- gend|ein- ge- gos-|sen, von|Gott dem|Men- schen|her- glos-|sen: durch|wel- che der|Christ _|wart und|
w: man das|Va- ter-|un- * ser|hört? Wel-|ches Chris-|tus uns|selbst ge-|lehrt und|zu bet- ten|be- *|foh- len|
 B4 d2 | d2 d2 B2 | A4 G2 | c2 A4 | !fermata!G4 G2 | E4 F2 | G4 G2 | E4 F2 | G4 G2 | B4 c2 | %31
w: hart: und|kein Ver- tra-|wen nim-|* mer|spart, Gott|werd ihm|ge- ben|al- les|Gut, so|ihm zum|
w: hat, mit|Lieb und An-|dacht, früh|_ und|späth. der|Bitt sein|sie- ben,|und nicht|mehr, sie|rei- chen|
 d4 c2 | B4 A2 | G6 |] %34
w: Him- mel|helf- fen|thut.|
w: all zu|Got- tes|Ehr.|
V:2
"^1)" d6 |"^2)" e4 A2 | e4 d2 | c4 f2 | d4 e2 | f4 d2 | c4 B2 | d2 d4 | !fermata!d6 | d6 | e4 A2 | %11
w: Sag,|wel- ches|ist dann|jet- so|mehr, dasz|an- der|Haupt- stück|un- ser|Lehr;|Hoff-|nung ein|
w: Sag,|un- er-|schroc- ken,|keck ver-|trawt das|Vat- ter|unser, wie|_ es|laut?|Vat-|ter un-|
 e4 d2 | c2 c2 f2 | d4 e2 | f4 d2 | c4 B2 | d2 d4 | d4 f2 | d4 d2 | e2 A4 | B4 c2 | d4 f2 | %22
w: Tu- gend|ein- ge- gos-|sen, von|Gott dem|Men- schen|her- glos-|sen: durch|wel- che|der Christ|wart und|hart: und|
w: ser im|_ Him- mel-|reich, ge-|hei- ligt|werd dein|Nahm zu-|gleich: zu|komm dein|Reich und|Re- gi-|ment, nichts|
 g2 f2 d2 | f4 e2 | c2 d2 f2 | !fermata!d4 d2 | c2 A4 | e4 d2 | G4 B2 | e4 d2 | d4 c2 | B4 _e2 | %32
w: kein Ver- tra-|wen nim-|* * mer|spart, Gott|werd ihm|ge- ben|al- les|Gut, so|ihm zum|Him- mel|
w: bes- * sers|wer- den|kan _ be-|nennt, wie|in Him-|mel al-|so auff|Erd. Gib|dasz dein|Will voll-|
 d4 d2 | d6 |] %34
w: hel- fen|thut.|
w: zo- gen|werd.|
V:3
"^3)""^1)""^4)" G,6 | C,4 D,2 | C,4 B,,2 | F,4 F,2 | G,4 C,2 | F,4 B,2 | F,4 G,2 | G,4 ^F,2 | %8
w: Sag,|wel- ches|ist dann|jet- so|mehr, dasz|an- der|Haupt- stück|un- ser|
w: Un-|ser täg-|lich Brodt|gib uns|heut: zu|dir schrey-|en wir,|ar- me|
 !fermata!G,6 | G,6 | C,4 D,2 | C,4 B,,2 | F,2 F,2 F,2 | G,4 C,2 | F,4 B,2 | F,4 G,2- | G,4 ^F,2 | %17
w: Lehr,|Hohh-|nung ein|Tu- gend|ein- ge- gos-|sen, von|Gott dem|Men- schen|her- glos-|
w: Leuth,|un-|ser täg-|lich Brodt|gib uns heut:|zu dir|schrey- en|wir, ar-|* me-|
 G,4 D,2 | D,4 G,2 | C,4 D,2 | G,4 F,2 | B,4 A,2 | G,2 A,2 G,2 | F,4 C,2 | F,2 D,4 | %25
w: sen: durch|wel- che|der Christ|wart und|hart: und|kein Ver- tra-|wen nim-|* mer|
w: Leuth, Ver-|gib uns|Herr un-|ser Schuld,|als wir|ver- ge- ben|fremb- *|* de|
 !fermata!G,4 B,2 | A,4 F,2 | C,4 G,2 | C,4 F,2 | C,4 G,2 | B,4 F,2 | G,4 C,2 | G,4 ^F,2 | G,6 |] %34
w: spart, Gott|werd ihm|ge- ben|al- les|Gut, so|ihm zum|Him- mel|hel- fen|thut.|
w: Schuld, führ|uns in|kein Ver-|su- chung|nit, vom|Ü- bel|redt uns|al- le|Schritt.|

